X: 43
T: Blazing Cornet, The
R: jig
M: 6/8
L: 1/8
G: Blazing Cornet
K: D
"D"DFA AFA|"G"Bcd "A"cde|"D"DFA AFA|"Em"eEE "A"e3|"D"DFA AFA|
"G"Bcd "A"cde|"Em"GBG "A"Fdc|"D"dAF D3:||:"D"dfd "A"ecA "A"ecA|"G"Bcd "D"AFD|
"D"dfd "A"ecA|"Em"eEE "A"E2F|"Em"GFG "F#m"AGA|"G"Bcd "D"AFD|"Em"Bge "A"cec|"D"dAFD3:|]
